X:2824
T:Ecossaise
C:Friedrich Kuhlau
R:Ecossaise
Z:Transcribed by Frank Nordberg - http://www.musicaviva.com
F:http://abc.musicaviva.com/tunes/kuhlau-friedrich/kuhlau-ecossaise02.abc
V:1 Program 1 0 %Piano
V:2 Program 1 0 bass %Piano
M:2/4
L:1/8
K:Eb
V:1
C2E2|G,2=A,=B,|C2E2|G2=A=B|c2e2|_A2c2|DAFD|E2z2:|
V:2
C,2E,2|G,,2=A,,=B,,|C,2E,2|G,2=A,=B,|C2E2|_A,2C2|[B,,2F,2A,2][B,,2F,2A,2]|[E,2G,2]z2:|
%
V:1
|:dafd|egec|=BfdB|cecA|G_dBG|A2c'2|=DEFD|E2z2:|
V:2
|:[B,2F2][B,2F2]|[E2G2][E2G2]|[G,2D2][G,2D2]|[C2E2][C2E2]|[E,2B,2][E,2B,2]|[A,2C2][A,2C2]|[B,,2A,2][B,,2A,2]|[E,2G,2]z2:|
W:
W:
W:  From Musica Viva - http://www.musicaviva.com
W:  the Internet center for free sheet music downloads.
